X: 9013
T: Betty Ann Daly's (with piano acc.)
C: BB
R: jig
Q: 1/8=320
M: 6/8
L: 1/8
V: 1 program 1 110 %fiddle
V: 2 volume=70 clef=bass m=D program 1 01
K: G
[V:1] D |"G"GFG "D"Adc | "Em"BEE EDB, | "G"DGB "Am"ABc | "Em"edB e2 f |
[V:2] z|G,,2[GBD]D,2[AFD]|E,2[EGB]B,,2[EGB]|G,,2[GBD]A,,2[ACE]|E,2[EGB]B,,2[EGB]|
%
[V:1] "C"gfe "D"dBA | "Bm"BAF "Em"GEE | "C"CEG "D"Fdc | "G"BGF G2 :|
[V:2] C,2[CGE]D,2[AFD]|B,,2[BFD]E,2[EBG]|C,2[EGC]D,2[AFD]|G,,B,,D, G,2 :|
%
[V:1] A|"G"BdB "C"cec | "D"dfa "G"gdB | "Em"efg dBG | "Am"AGA "Em"B2E|
[V:2] z|G,,2[GBD]C,2[EGC]|D,2[AFD]G,,2[GBD]|E,2[EGB]B,,2[EGB]|A,,2[ACE]E,2[EGB]|
%
[V:1] "G"Bcd "C"cde | "D"def "G"gab | "D"afd "C"gec |"D"dAF "G"G2 :|
[V:2] G,,2[GBD]C,2[EGC]|D,2[AFD]G,,2[GBD]|D,2[AFD]C,2[EGC]|D,2[DFA][G,,2B,2D,2]:|
%%%%%tune repeat
[V:1] D |"G"GFG "D"Adc | "Em"BEE EDB, | "G"DGB "Am"ABc | "Em"edB e2 f |
[V:2] z|G,,2[GBD]D,2[AFD]|E,2[EGB]B,,2[EGB]|G,,2[GBD]A,,2[ACE]|E,2[EGB]B,,2[EGB]|
%
[V:1] "C"gfe "D"dBA | "Bm"BAF "Em"GEE | "C"CEG "D"Fdc | "G"BGF G2 :|
[V:2] C,2[CGE]D,2[AFD]|B,,2[BFD]E,2[EBG]|C,2[EGC]D,2[AFD]|G,,B,,D, G,2 :|
%
[V:1] A|"G"BdB "C"cec | "D"dfa "G"gdB | "Em"efg dBG | "Am"AGA "Em"B2E|
[V:2] z|G,,2[GBD]C,2[EGC]|D,2[AFD]G,,2[GBD]|E,2[EGB]B,,2[EGB]|A,,2[ACE]E,2[EGB]|
%
[V:1] "G"Bcd "C"cde | "D"def "G"gab | "D"afd "C"gec |1 "D"dAF "G"G2 :|2\
"D"dAF "G"G3-|G3 z3|z6||
[V:2] G,,2[GBD]C,2[EGC]|D,2[AFD]G,,2[GBD]|D,2[AFD]C,2[EGC]|1 D,2[AFD][G,,2B,2D,2]:|2\
D,2[DFA][G,,3-B,3-D,3-]|[G,,3B,3D,3] z3|z6||

%%%%%%%%%%%%%%%%%%%%%%%%%%%%%%%%%%%%%%%%%%%

